icons/sword-shield.svg

<?xml version="1.0" encoding="UTF-8"?><svg xmlns="http://www.w3.org/2000/svg" viewBox="0 0 50 50"><g id="uuid-857ed1ab-39b2-4938-bd4f-914f61210905"><path d="M46.9,1.07c-.14-.13-.35-.17-.53-.1l-8.6,3.51c-.07,.03-.14,.08-.19,.13l-2.5,2.85c-3.8-1.14-7.32-3.15-10.21-5.92-.19-.19-.5-.19-.69,0-4.17,4-9.62,6.45-15.37,6.91-.2,.02-.37,.15-.44,.35-.83,2.58-1.25,5.26-1.25,7.96,0,6,2.09,11.67,5.67,16.19l-2.4,2.75-2.94-2.73c-.1-.09-.23-.13-.36-.13-.13,0-.26,.06-.35,.16l-3.29,3.55c-.19,.2-.18,.52,.03,.71l2.52,2.34-3.37,3.63c-.09,.1-.14,.23-.13,.36s.06,.26,.16,.35l4.81,4.46c.1,.09,.22,.13,.34,.13,.13,0,.27-.05,.37-.16l3.37-3.63,2.52,2.34c.09,.09,.21,.13,.34,.13h.02c.13,0,.26-.06,.35-.16l3.29-3.55c.19-.2,.18-.52-.03-.71l-2.96-2.75,2.43-2.47c2.05,1.55,4.35,2.83,6.85,3.73,.06,.02,.11,.03,.17,.03s.12,0,.17-.03c10.31-3.74,17.23-13.6,17.23-24.54,0-1.24-.1-2.48-.27-3.7l2.41-2.44c.05-.05,.1-.12,.12-.2l2.86-8.84c.06-.19,0-.39-.14-.52ZM8.12,16.77c0-2.49,.37-4.96,1.1-7.34,5.69-.53,11.1-2.94,15.3-6.83,2.83,2.62,6.2,4.54,9.84,5.7l-2.27,2.6c-2.6-.92-5.06-2.24-7.26-3.92-.18-.14-.43-.14-.61,0-3.39,2.59-7.41,4.34-11.62,5.06-.2,.04-.36,.19-.41,.39-.3,1.42-.45,2.86-.45,4.3,0,4.64,1.55,9.03,4.24,12.58l-2.52,2.88c-3.37-4.32-5.34-9.71-5.34-15.42Zm23.25-5.06l-14.71,16.82c-2.49-3.35-3.92-7.46-3.92-11.81,0-1.26,.12-2.52,.36-3.76,4.12-.75,8.05-2.46,11.41-4.96,2.1,1.56,4.41,2.8,6.85,3.71ZM7.78,47.31l-4.08-3.78,3.03-3.26,4.08,3.78-3.03,3.26Zm9.2-4.13l-2.61,2.81-9.85-9.13,2.61-2.81,9.85,9.13Zm7.54-2.88c-2.3-.85-4.41-2.03-6.3-3.45l2.8-2.84c1.04,.69,2.14,1.31,3.31,1.82,.06,.03,.13,.04,.2,.04s.13-.01,.2-.04c7.4-3.2,12.25-10.33,12.55-18.32l3.48-3.53c.1,.93,.17,1.86,.17,2.79,0,10.46-6.58,19.89-16.4,23.54Zm-2.8-7.01l14.48-14.69c-.67,7.07-5.09,13.3-11.68,16.23-.98-.44-1.91-.96-2.8-1.53ZM43.26,10.01L14.34,39.36l-3.21-2.98L38.25,5.37l7.5-3.06-2.49,7.71Z"/></g><g id="uuid-bb85b0a5-ebee-4857-84f7-2c825cab8615"><text transform="translate(-.1 54.84)" font-family="Roboto-Regular, Roboto" font-size="6"><tspan x="0" y="0">swo</tspan><tspan x="11.02" y="0" letter-spacing="0em">r</tspan><tspan x="13" y="0">d-shield</tspan></text></g></svg>

<svg xmlns="http://www.w3.org/2000/svg" viewBox="0 0 50 50"><g id="a2edf6b8-925a-4810-beaf-445dfa2e5ddb" data-name="ICONS"><path d="M46.9,1.07a.52.52,0,0,0-.53-.1L37.76,4.49a.38.38,0,0,0-.18.13l-2.5,2.85A25,25,0,0,1,24.87,1.55a.51.51,0,0,0-.69,0A25.12,25.12,0,0,1,8.8,8.46a.49.49,0,0,0-.43.35A25.93,25.93,0,0,0,12.8,33L10.4,35.7,7.45,33a.52.52,0,0,0-.36-.13.5.5,0,0,0-.34.16L3.46,36.55a.49.49,0,0,0,0,.7L6,39.59,2.63,43.22a.53.53,0,0,0-.13.36.52.52,0,0,0,.16.35l4.81,4.46a.51.51,0,0,0,.71,0l3.36-3.63,2.52,2.34a.55.55,0,0,0,.34.13h0a.48.48,0,0,0,.35-.16l3.29-3.54a.5.5,0,0,0,0-.71l-3-2.75,2.44-2.47a25.91,25.91,0,0,0,6.84,3.74.51.51,0,0,0,.17,0,.47.47,0,0,0,.17,0A26.19,26.19,0,0,0,41.92,16.77a26.86,26.86,0,0,0-.27-3.7l2.4-2.44a.47.47,0,0,0,.12-.2L47,1.59A.5.5,0,0,0,46.9,1.07ZM8.12,16.77a25.06,25.06,0,0,1,1.1-7.34A26.12,26.12,0,0,0,24.52,2.6a26.27,26.27,0,0,0,9.84,5.7l-2.27,2.6A26.3,26.3,0,0,1,24.83,7a.5.5,0,0,0-.61,0A26.54,26.54,0,0,1,12.6,12a.5.5,0,0,0-.4.39A20.78,20.78,0,0,0,16,29.31l-2.52,2.88A25,25,0,0,1,8.12,16.77Zm23.26-5.06L16.66,28.54A19.8,19.8,0,0,1,13.11,13,27.72,27.72,0,0,0,24.52,8,27.57,27.57,0,0,0,31.38,11.71ZM7.78,47.31,3.71,43.53l3-3.26,4.07,3.78ZM17,43.18,14.38,46,4.53,36.86l2.61-2.81Zm7.53-2.87a24.87,24.87,0,0,1-6.3-3.46L21,34a20.8,20.8,0,0,0,3.31,1.82.48.48,0,0,0,.2,0,.45.45,0,0,0,.2,0A20.8,20.8,0,0,0,37.27,17.51L40.75,14a26.11,26.11,0,0,1,.17,2.79A25.19,25.19,0,0,1,24.52,40.31Zm-2.8-7L36.2,18.6A19.81,19.81,0,0,1,24.52,34.83,20.53,20.53,0,0,1,21.72,33.29ZM43.26,10,14.34,39.36l-3.21-3,27.12-31,7.5-3.07Z"/></g><g id="a83b7db0-4691-44fe-8057-25ce4f09e92b" data-name="LABELS"><text transform="translate(-0.1 54.84)" font-size="6" font-family="Roboto-Regular, Roboto">swo<tspan x="11.02" y="0" letter-spacing="-0.01em">r</tspan><tspan x="13" y="0">d-shield</tspan></text></g></svg>
